packages/components/src/components/icon/appstore/ic-appstore-options.svg

<svg width="64" height="64" fill="none" xmlns="http://www.w3.org/2000/svg"><g clip-path="url(#prefix__clip0_27113_74253)"><path d="M0 12C0 5.38 5.38 0 12 0h40c6.62 0 12 5.38 12 12v40c0 6.62-5.38 12-12 12H12C5.38 64 0 58.62 0 52V12z" fill="url(#prefix__paint0_linear_27113_74253)"/><path d="M34 38c0-2.2 1.8-4 4-4h8c2.2 0 4 1.8 4 4v8c0 2.2-1.8 4-4 4h-8c-2.2 0-4-1.8-4-4v-8z" fill="#FF6444"/><path d="M14 38c0-2.2 1.8-4 4-4h8c2.2 0 4 1.8 4 4v8c0 2.2-1.8 4-4 4h-8c-2.2 0-4-1.8-4-4v-8z" fill="#336F9A"/><path d="M34 18c0-2.2 1.8-4 4-4h8c2.2 0 4 1.8 4 4v8c0 2.2-1.8 4-4 4h-8c-2.2 0-4-1.8-4-4v-8z" fill="#85ACB0"/><path d="M14 18c0-2.2 1.8-4 4-4h8c2.2 0 4 1.8 4 4v8c0 2.2-1.8 4-4 4h-8c-2.2 0-4-1.8-4-4v-8z" fill="#FF444F"/></g><defs><linearGradient id="prefix__paint0_linear_27113_74253" x1="32" y1="64" x2="32" y2="0" gradientUnits="userSpaceOnUse"><stop/><stop offset="1" stop-color="#58595B"/></linearGradient><clipPath id="prefix__clip0_27113_74253"><path fill="#fff" d="M0 0h64v64H0z"/></clipPath></defs></svg>

<svg width="64" height="64" viewBox="0 0 64 64" fill="none" xmlns="http://www.w3.org/2000/svg">
    <g clip-path="url(#clip0_27113_74253)">
        <path
            d="M0 12C0 5.38 5.38 0 12 0H52C58.62 0 64 5.38 64 12V52C64 58.62 58.62 64 52 64H12C5.38 64 0 58.62 0 52V12Z"
            fill="url(#paint0_linear_27113_74253)" />
        <path
            d="M34 38C34 35.8 35.8 34 38 34H46C48.2 34 50 35.8 50 38V46C50 48.2 48.2 50 46 50H38C35.8 50 34 48.2 34 46V38Z"
            fill="#FF6444" />
        <path
            d="M14 38C14 35.8 15.8 34 18 34H26C28.2 34 30 35.8 30 38V46C30 48.2 28.2 50 26 50H18C15.8 50 14 48.2 14 46V38Z"
            fill="#336F9A" />
        <path
            d="M34 18C34 15.8 35.8 14 38 14H46C48.2 14 50 15.8 50 18V26C50 28.2 48.2 30 46 30H38C35.8 30 34 28.2 34 26V18Z"
            fill="#85ACB0" />
        <path
            d="M14 18C14 15.8 15.8 14 18 14H26C28.2 14 30 15.8 30 18V26C30 28.2 28.2 30 26 30H18C15.8 30 14 28.2 14 26V18Z"
            fill="#FF444F" />
    </g>
    <defs>
        <linearGradient id="paint0_linear_27113_74253" x1="32" y1="64" x2="32" y2="0" gradientUnits="userSpaceOnUse">
            <stop />
            <stop offset="1" stop-color="#58595B" />
        </linearGradient>
        <clipPath id="clip0_27113_74253">
            <rect width="64" height="64" fill="white" />
        </clipPath>
    </defs>
</svg>
